img/chevron-left.svg

<svg width="30" height="30" viewBox="0 0 30 30" fill="none" xmlns="http://www.w3.org/2000/svg">
<path fill-rule="evenodd" clip-rule="evenodd" d="M19.2633 6.61612C19.7327 7.10427 19.7327 7.89573 19.2633 8.38388L12.9017 15L19.2633 21.6161C19.7327 22.1043 19.7327 22.8957 19.2633 23.3839C18.794 23.872 18.033 23.872 17.5636 23.3839L10.352 15.8839C9.88265 15.3957 9.88265 14.6043 10.352 14.1161L17.5636 6.61612C18.033 6.12796 18.794 6.12796 19.2633 6.61612Z" fill="white" fill-opacity="0.8"/>
</svg>

<svg width="30" height="30" fill="none" xmlns="http://www.w3.org/2000/svg"><path fill-rule="evenodd" clip-rule="evenodd" d="M19.263 6.616c.47.488.47 1.28 0 1.768L12.902 15l6.361 6.616c.47.488.47 1.28 0 1.768a1.17 1.17 0 0 1-1.7 0l-7.211-7.5a1.286 1.286 0 0 1 0-1.768l7.212-7.5a1.17 1.17 0 0 1 1.7 0Z" fill="#fff" fill-opacity=".8"/></svg>
